public/icon.svg

<svg height="512" preserveAspectRatio="xMidYMid meet" viewBox="0 0 512 512" width="512" xmlns="http://www.w3.org/2000/svg" xmlns:xlink="http://www.w3.org/1999/xlink"><defs><path id="a" d="m207.43 279.54-10.34 38.48-8.78-38.48z"/><path id="b" d="m311.58 279.54-10.34 38.48-8.78-38.48z"/></defs><path d="m454.06 37.84c11.05 0 20 8.95 20 20v381.84c0 11.04-8.95 20-20 20-84.5 0-318.02 0-402.53 0-11.04 0-20-8.96-20-20 0-80.37 0-301.47 0-381.84 0-11.05 8.96-20 20-20z" fill="#282a36"/><path d="m414.29 239.56c0 87.87-73.65 159.2-164.37 159.2-90.71 0-164.36-71.33-164.36-159.2 0-87.86 73.65-159.19 164.36-159.19 90.72 0 164.37 71.33 164.37 159.19z" fill="#bd93f9"/><path d="m343.58 290.74c0 42.49-41.96 77-93.66 77-51.69 0-93.66-34.51-93.66-77 0-42.5 41.97-77 93.66-77 51.7 0 93.66 34.5 93.66 77z" fill="#282a36"/><path d="m337.28 171.17c0 14.59-11.85 26.44-26.44 26.44s-26.43-11.85-26.43-26.44 11.84-26.43 26.43-26.43 26.44 11.84 26.44 26.43z" fill="#282a36"/><path d="m214.75 173.93c0 14.59-11.84 26.44-26.44 26.44-14.59 0-26.43-11.85-26.43-26.44s11.84-26.44 26.43-26.44c14.6 0 26.44 11.85 26.44 26.44z" fill="#282a36"/><g fill="#bd93f9"><path d="m252.8 154.14 68.33-44.72 23.92 36.55-68.34 44.72z"/><path d="m221.42 195.81-61.88-53.29 28.5-33.1 61.88 53.29z"/><path d="m117.04 208.01h248.96v72.36h-248.96z"/><use xlink:href="#a"/></g><use fill="none" xlink:href="#a"/><use fill="#bd93f9" xlink:href="#b"/><use fill="none" xlink:href="#b"/></svg>

<svg xmlns="http://www.w3.org/2000/svg" xmlns:xlink="http://www.w3.org/1999/xlink" width="512" height="512" preserveAspectRatio="xMidYMid meet" version="1.1" viewBox="0 0 512 512"><defs><path id="b6hUw5FwnR" d="M454.06 37.84C465.11 37.84 474.06 46.79 474.06 57.84C474.06 138.21 474.06 359.31 474.06 439.68C474.06 450.72 465.11 459.68 454.06 459.68C369.56 459.68 136.04 459.68 51.53 459.68C40.49 459.68 31.53 450.72 31.53 439.68C31.53 359.31 31.53 138.21 31.53 57.84C31.53 46.79 40.49 37.84 51.53 37.84C136.04 37.84 369.56 37.84 454.06 37.84Z"/><path id="ceweGrYon" d="M414.29 239.56C414.29 327.43 340.64 398.76 249.92 398.76C159.21 398.76 85.56 327.43 85.56 239.56C85.56 151.7 159.21 80.37 249.92 80.37C340.64 80.37 414.29 151.7 414.29 239.56Z"/><path id="a2EUgJP218" d="M343.58 290.74C343.58 333.23 301.62 367.74 249.92 367.74C198.23 367.74 156.26 333.23 156.26 290.74C156.26 248.24 198.23 213.74 249.92 213.74C301.62 213.74 343.58 248.24 343.58 290.74Z"/><path id="b4fyGt599" d="M337.28 171.17C337.28 185.76 325.43 197.61 310.84 197.61C296.25 197.61 284.41 185.76 284.41 171.17C284.41 156.58 296.25 144.74 310.84 144.74C325.43 144.74 337.28 156.58 337.28 171.17Z"/><path id="bE3GMypFI" d="M214.75 173.93C214.75 188.52 202.91 200.37 188.31 200.37C173.72 200.37 161.88 188.52 161.88 173.93C161.88 159.34 173.72 147.49 188.31 147.49C202.91 147.49 214.75 159.34 214.75 173.93Z"/><path id="e18I3aihRg" d="M252.8 154.14L321.13 109.42L345.05 145.97L276.71 190.69L252.8 154.14Z"/><path id="aqr5PMNol" d="M221.42 195.81L159.54 142.52L188.04 109.42L249.92 162.71L221.42 195.81Z"/><path id="d7rH2hDQUf" d="M117.04 208.01L366 208.01L366 280.37L117.04 280.37L117.04 208.01Z"/><path id="a9SkiWsgD" d="M207.43 279.54L197.09 318.02L188.31 279.54L207.43 279.54Z"/><path id="a2ogeHeJLe" d="M311.58 279.54L301.24 318.02L292.46 279.54L311.58 279.54Z"/></defs><g><g><g><use fill="#282a36" fill-opacity="1" opacity="1" xlink:href="#b6hUw5FwnR"/></g><g><use fill="#bd93f9" fill-opacity="1" opacity="1" xlink:href="#ceweGrYon"/></g><g><use fill="#282a36" fill-opacity="1" opacity="1" xlink:href="#a2EUgJP218"/></g><g><use fill="#282a36" fill-opacity="1" opacity="1" xlink:href="#b4fyGt599"/></g><g><use fill="#282a36" fill-opacity="1" opacity="1" xlink:href="#bE3GMypFI"/></g><g><use fill="#bd93f9" fill-opacity="1" opacity="1" xlink:href="#e18I3aihRg"/></g><g><use fill="#bd93f9" fill-opacity="1" opacity="1" xlink:href="#aqr5PMNol"/></g><g><use fill="#bd93f9" fill-opacity="1" opacity="1" xlink:href="#d7rH2hDQUf"/></g><g><use fill="#bd93f9" fill-opacity="1" opacity="1" xlink:href="#a9SkiWsgD"/><g><use fill-opacity="0" stroke="#000" stroke-opacity="1" stroke-width="0" opacity="1" xlink:href="#a9SkiWsgD"/></g></g><g><use fill="#bd93f9" fill-opacity="1" opacity="1" xlink:href="#a2ogeHeJLe"/><g><use fill-opacity="0" stroke="#000" stroke-opacity="1" stroke-width="0" opacity="1" xlink:href="#a2ogeHeJLe"/></g></g></g></g></svg>
